svgs/sharp-light/road-bridge.svg

<svg xmlns="http://www.w3.org/2000/svg" viewBox="0 0 640 512"><!--! Font Awesome Pro 6.6.0 by @fontawesome - https://fontawesome.com License - https://fontawesome.com/license (Commercial License) Copyright 2024 Fonticons, Inc. --><path d="M320 32l0-32 32 0L608 0l32 0 0 32 0 448 0 32-32 0-256 0-32 0 0-32 0-448zM496 480l112 0 0-448L496 32l0 64 0 16-32 0 0-16 0-64L352 32l0 448 112 0 0-64 0-16 32 0 0 16 0 64zm0-288l0 16 0 96 0 16-32 0 0-16 0-96 0-16 32 0zM16 96l272 0 0 32-48 0 0 64 48 0 0 32L16 224 0 224l0-32 16 0 64 0 0-64-64 0L0 128 0 96l16 0zM264 288l24 0 0 32-24 0c-30.9 0-56 25.1-56 56l0 120 0 16-16 0-96 0-16 0 0-16 0-120c0-30.9-25.1-56-56-56l-8 0L0 320l0-32 16 0 8 0c48.6 0 88 39.4 88 88l0 104 64 0 0-104c0-48.6 39.4-88 88-88zM208 128l-96 0 0 64 96 0 0-64z"/></svg>

<svg xmlns="http://www.w3.org/2000/svg" viewBox="0 0 640 512"><!--! Font Awesome Pro 6.4.0 by @fontawesome - https://fontawesome.com License - https://fontawesome.com/license (Commercial License) Copyright 2023 Fonticons, Inc. --><path d="M320 32V0h32H608h32V32 480v32H608 352 320V480 32zM496 480H608V32H496V96v16H464V96 32H352V480H464V416 400h32v16 64zm0-288v16 96 16H464V304 208 192h32zM16 96H288v32H240v64h48v32H16 0V192H16 80V128H16 0V96H16zM264 288h24v32H264c-30.9 0-56 25.1-56 56V496v16H192 96 80V496 376c0-30.9-25.1-56-56-56H16 0V288H16h8c48.6 0 88 39.4 88 88V480h64V376c0-48.6 39.4-88 88-88zM208 128H112v64h96V128z"/></svg>
